X: 603
T: Wangdengyun xiuqi
L: 1/8
M: 2/4
K: G
G G E G [I:setbarnb 1]| 
A2G A | 
E E D B, | 
D2E2 | 
A B d d | 
d B A B | 
A G E G | 
D2z2 |]

@@@ Tune index: 9477
